X:1     %Music
T:The Flower of Killarney
B:Singing Together, Autumn 1970, BBC Publications
F:http://www.folkinfo.org/songs
M:6/8     %Meter
L:1/8     %
K:F
E |F3/2G/F E3/2D/C |c3 (d3/2e/)f |c3/2B/A G2 F | D3- D2
w:Ma-vour-neen's the flower of Kil-lar-ney,_ The fair-est of all to me. *
 E |F3/2G/F E3/2F/C |c3 (d3/2e/)f |c3/2B/A G2 F | F3- F2
w:The ro-ses that bloom in Kil-lar-ney,_ Are ne-ver as fair as she. *
 c |c3/2d/e f2 f |f3 (f3/2e/)d |c3/2B/A G2 F | D3- D2
w:The land of the mists and moun-tains_ For e-ver her home shall be, *
 E |F3/2G/F E3/2D/C |c3 (d3/2e/)f |c3/2B/A G2 F | F3- F2  |]
w: For she is the flower of Kil-lar-ney_ And fair-est of all to me. *